X:1
T:Peace of God, 77.77.77
T:Johan Peter Emilius Hartmann (1805-1900)
T:Peace of God, 77.77.77
T:Public Domain
C:Johan Peter Emilius Hartmann (1805-1900)
Z:Public Domain
%%score ( 1 2 ) ( 3 4 )
L:1/8
M:none
K:G
V:1 treble 
V:2 treble 
V:3 bass 
V:4 bass 
V:1
 [GB]4 [GB]2 [Gd]4 [Ge]2 | G4 [DA]2 [DB]4 z2 | [Fd]4 [FB]2 (G3 F) [EG]2 | [Fc]4 [GB]2 [FA]4 z2 | %4
 F2 G2 [DA]2 [DB]4 [EA]2 | (A2 B2) [E^c]2 [Dd]4 z2 | (d2 ^c2) [DB]2 [DA]4 [DG]2 | %7
 (F2 G2) [^CE]2 D4 z2 | [EA]4 [DF]2 D4 D2 | [Gc]4 [GB]2 [FA]4 z2 | %10
 (d2 c2) [DB]2 ([EA]2 [DB]2) [Cc]2 | [DG]4 [DF]2 [DG]4 z2 |] %12
V:2
 x12 | G4 x8 | x6 D4 x2 | x12 | D4 x8 | D4 x8 | D4 x8 | D4 D4 x4 | x6 D4 D2 | x12 | D4 x8 | x12 |] %12
V:3
 [G,D]4 [E,E]2 [B,,D]4 [C,C]2 | [E,B,]4 [F,A,]2 G,4 z2 | [D,A,]4 [E,D]2 [B,,D]4 [E,B,]2 | %3
 [A,,C]4 [G,,D]2 [D,D]4 z2 | [D,A,]4 [C,F,]2 [B,,G,]4 [^C,G,]2 | [D,F,]4 [A,,G,]2 [B,,F,]4 z2 | %6
 [F,A,]4 G,2 [D,F,]4 [B,,G,]2 | ([A,,A,]2 [G,,B,]2) [A,,G,]2 [D,F,]4 z2 | %8
 [^C,A,]4 [D,A,]2 [G,B,]4 [F,A,]2 | [E,G,]4 [D,D]2 [C,D]4 z2 | %10
 (B,,2 A,,2) [G,,=G,]2 ([C,E,]2 [B,,^G,]2) [A,,A,]2 | [D,B,]4 [D,A,]2 [G,,B,]4 z2 |] %12
V:4
 x12 | x6 G,4 x2 | x12 | x12 | x12 | x12 | x4 G,2 x6 | x12 | x12 | x12 | ^G,4 x8 | x12 |] %12

